svg/emoji_u25b6.svg

<svg enable-background="new 0 0 128 128" viewBox="0 0 128 128" xmlns="http://www.w3.org/2000/svg"><linearGradient id="a" x1="64" x2="64" y1="4.25" y2="123.91" gradientUnits="userSpaceOnUse"><stop stop-color="#FFAB40" offset="0"/><stop stop-color="#FF6D00" offset="1"/></linearGradient><path d="m116 124h-104c-4.42 0-8-3.58-8-8v-104c0-4.42 3.58-8 8-8h104c4.42 0 8 3.58 8 8v104c0 4.42-3.58 8-8 8z" fill="url(#a)"/><g opacity=".2"><path d="m116 7c2.76 0 5 2.24 5 5v104c0 2.76-2.24 5-5 5h-104c-2.76 0-5-2.24-5-5v-104c0-2.76 2.24-5 5-5h104m0-3h-104c-4.42 0-8 3.58-8 8v104c0 4.42 3.58 8 8 8h104c4.42 0 8-3.58 8-8v-104c0-4.42-3.58-8-8-8z" fill="#424242"/></g><g opacity=".2"><path d="m46.28 35c0.38 0 0.76 0.1 1.12 0.31l43.45 25.66c1.53 0.9 1.53 3.16 0 4.05l-43.45 25.67c-0.36 0.21-0.75 0.31-1.12 0.31-1.19 0-2.28-0.98-2.28-2.34v-51.32c0-1.36 1.09-2.34 2.28-2.34m0-3c-2.91 0-5.28 2.39-5.28 5.34v51.32c0 2.94 2.37 5.34 5.28 5.34 0.92 0 1.84-0.25 2.64-0.72l43.46-25.67c1.64-0.96 2.62-2.69 2.62-4.61s-0.98-3.65-2.63-4.61l-43.44-25.66c-0.82-0.48-1.73-0.73-2.65-0.73z" fill="#424242"/></g><path d="M44,63V37.34c0-1.79,1.89-2.91,3.4-2.03l43.45,25.66c1.53,0.9,1.53,3.16,0,4.05L47.4,90.69 c-1.52,0.89-3.4-0.23-3.4-2.03V63z" fill="#FAFAFA"/></svg>

<svg width="128" height="128" style="enable-background:new 0 0 128 128;" xmlns="http://www.w3.org/2000/svg" xmlns:xlink="http://www.w3.org/1999/xlink">
  <g>
    <linearGradient id="SVGID_1_" gradientUnits="userSpaceOnUse" x1="64" x2="64" y1="4.25" y2="123.9133">
      <stop offset="0" style="stop-color:#FFAB40"/>
      <stop offset="1" style="stop-color:#FF6D00"/>
    </linearGradient>
    <path d="M116,124H12c-4.42,0-8-3.58-8-8V12c0-4.42,3.58-8,8-8h104c4.42,0,8,3.58,8,8v104 C124,120.42,120.42,124,116,124z" style="fill:url(#SVGID_1_);"/>
    <g style="opacity:0.2;">
      <path d="M116,7c2.76,0,5,2.24,5,5v104c0,2.76-2.24,5-5,5H12c-2.76,0-5-2.24-5-5V12c0-2.76,2.24-5,5-5H116 M116,4H12c-4.42,0-8,3.58-8,8v104c0,4.42,3.58,8,8,8h104c4.42,0,8-3.58,8-8V12C124,7.58,120.42,4,116,4L116,4z" style="fill:#424242;"/>
    </g>
    <g style="opacity:0.2;">
      <path d="M46.28,35c0.38,0,0.76,0.1,1.12,0.31l43.45,25.66c1.53,0.9,1.53,3.16,0,4.05L47.4,90.69 C47.04,90.9,46.65,91,46.28,91C45.09,91,44,90.02,44,88.66V63V37.34C44,35.98,45.09,35,46.28,35 M46.28,32L46.28,32 C43.37,32,41,34.39,41,37.34V63v25.66c0,2.94,2.37,5.34,5.28,5.34c0.92,0,1.84-0.25,2.64-0.72l43.46-25.67 C94.02,66.65,95,64.92,95,63s-0.98-3.65-2.63-4.61L48.93,32.73C48.11,32.25,47.2,32,46.28,32L46.28,32z" style="fill:#424242;"/>
    </g>
    <path d="M44,63V37.34c0-1.79,1.89-2.91,3.4-2.03l43.45,25.66c1.53,0.9,1.53,3.16,0,4.05L47.4,90.69 c-1.52,0.89-3.4-0.23-3.4-2.03V63z" style="fill:#FAFAFA;"/>
  </g>
</svg>
